assets/logos/telegram.svg

<svg width="80" height="80" viewBox="0 0 80 80" fill="none" xmlns="http://www.w3.org/2000/svg">
<rect x="8" y="8" width="64" height="64" rx="32" fill="#30A3E6"/>
<path d="M48.7169 28.6928C49.1897 28.4972 49.6605 28.2952 50.1536 28.1583C50.9256 27.9441 52.1515 27.7266 53.02 28.1649C54.937 29.1331 54.1603 32.0113 53.7848 34.1258L50.6804 51.6041C50.3525 53.4501 50.337 55.8293 48.6288 56.602C48.6196 56.6062 48.6104 56.6103 48.601 56.6144C46.9365 57.3361 45.1637 56.1216 43.6458 55.1278C40.4006 53.0033 34.7939 49.2813 34.3252 48.623C33.6266 47.6248 34.6777 46.4831 35.5497 45.6323C38.489 42.7641 45.3696 36.0457 45.4478 35.9302C45.5472 35.7995 45.7296 35.4728 45.3981 35.146C45.3756 35.1239 45.35 35.1062 45.3219 35.0925C44.5144 34.7 43.6974 35.7203 42.9483 36.2153L29.9822 44.7841C29.0888 45.3788 28.1806 45.5061 27.4713 45.475C26.5611 45.4352 25.7043 45.0635 24.8408 44.7731L22.4056 43.9541C21.1739 43.5399 19.5262 42.9356 19.7529 41.6561C19.9876 40.3313 21.6195 39.9039 22.8627 39.3896L48.7169 28.6928Z" fill="white"/>
</svg>

<svg xmlns="http://www.w3.org/2000/svg" width="80" height="80" fill="none" viewBox="0 0 80 80"><rect width="64" height="64" x="8" y="8" fill="#30a3e6" rx="32"/><path fill="#fff" d="M48.717 28.693c.473-.196.944-.398 1.437-.535.772-.214 1.997-.431 2.866.007 1.917.968 1.14 3.846.765 5.96l-3.105 17.48c-.328 1.845-.343 4.224-2.051 4.997l-.028.012c-1.664.722-3.437-.492-4.955-1.486-3.245-2.125-8.852-5.847-9.32-6.505-.7-.998.352-2.14 1.224-2.99 2.939-2.869 9.82-9.587 9.898-9.703.1-.13.282-.457-.05-.784a.3.3 0 0 0-.076-.053c-.808-.393-1.625.627-2.374 1.122l-12.966 8.57a4.14 4.14 0 0 1-2.51.69c-.91-.04-1.768-.412-2.631-.702l-2.435-.819c-1.232-.414-2.88-1.018-2.653-2.298.235-1.325 1.866-1.752 3.11-2.266z"/></svg>
